X: 399
T: Sonate pour Piano et Violoncelle	 Op. 65
C: Fryderyk Chopin
%%abc-version 2.0
%%abcx-abcm2ps-target-version 5.9.1 (29 Sep 2008)
%%abc-creator hum2abc beta
%%abcx-conversion-date 2021/10/03 11:23:46
%%abc-edited-by Mateusz Mrugas
%%abc-edited-by Jędrzej Mróz
%%abcx-initial-encoding-date 2020-03-25
%%humdrum-veritas 3006714330
%%humdrum-veritas-data 2918001648
%%linebreak <none>
%%barnumbers 0
L: 1/8
M: 3/4
N: Derived from 065-1-BH-002-violoncello.krn
K: F clef=bass
A,2 [I:setbarnb 1]| 
.A,2A,B, B,A, | 
A,D^CD!accent!E2 | 
.F2A,B,B,A, | 
A,F,E,D,E,2 | 
.A,,2z2[K:clef=treble]E2 | 
F2D4 | 
A2E4 | 
F2D4 | 
A6 | 
E4^c2 | 
^c6 | 
z6[K:clef=bass] | 
A, z _B,A,CB, | 
G, z A,G,B,A, | 
F, z G,F,A,G, | 
E, z F,E,G,F, | 
D, zz2z2 | 
z2z2.[A,2E,2A,,2] | 
.[A,2D,2]z2z2 | 
z2z2E,2 | 
C2A,B,B,A, | 
G,2G,A,A,G, | 
F,2F,G,G,F, | 
E,2E,F,F,E, | 
D,6 | 
C4B,2[K:clef=treble] | 
_A6 | 
z6 | 
F6 | 
B,2_E2D2 | 
^C6 | 
D6 | 
d2DEED | 
DG^FGA2 | 
B2D_EED[K:clef=bass] | 
DB,A,G,[B,2D,2G,,2] | 
_E,2z2z2 | 
z2z2_E,,2 | 
[_E,2_A,,2]z2z2 | 
z2z2^G,2 | 
^A,2^F2F2 | 
^F2^C4 | 
^D2^G2^F2 | 
^F2^C4[K:clef=treble] | 
^D6 | 
^F4^d2 | 
^d6 | 
z6[K:clef=bass] | 
=B, z CB,DC | 
A, z =B,A,CB, | 
G, z A,G,=B,A, | 
^F, z G,F,A,G, | 
E, zz2z2 | 
[^G,6=B,,6] | 
[A,6C,6] | 
[=B,6D,6] | 
[C2_E,2]A,=B,B,A, | 
D,A,^G,A,D2 | 
G,2G,A,A,G, | 
G,CEFG2[K:clef=treble] | 
_A2AB BA | 
_A2_E4 | 
F2_AB BA | 
_A2_E_GFE | 
F2[K:clef=bass]_A,B,B,A, | 
_A,4C,2 | 
_A,4_C,2 | 
_A,2B,,2A,B, | 
_C2[_A4=B,4] | 
[G2=C2][^F4A,4] | 
[G2_B,2][^C4E,4] | 
[D2F,2][D4F,4] | 
A,2[A,4E,4A,,4] | 
A,4A,2 & F,2D,2[D,2A,,2] | 
[^C2E,2A,,2][A,4E,4A,,4] | 
A,4A,2 & F,2D,2[D,2A,,2] | 
F6 | 
E4D2 | 
^C2=C2_B,2 | 
E,2F,2D,2 | 
A,,2A,,B,, B,,A,, | 
Z3 | 
.A,,2A,,B,,B,,A,, | 
Z3 | 
A,2A,B,B,A, | 
A,D^CD!accent!E2 | 
F2A,B,B,A, | 
A,F,=E,D,E,2 | 
.A,,2z2[K:clef=treble]E2 | 
F2D4 | 
A2E4 | 
F2D4 | 
A6 | 
E4^c2 | 
^c6 | 
z6[K:clef=bass] | 
A, z B,A,CB, | 
G, z A,G,B,A, | 
F, z G,F,A,G, | 
E, z F,E,G,F, | 
D,2z2z2 | 
z2z2[A,2E,2A,,2] | 
[A,2D,2]z2z2 | 
z2z2E,2 | 
C2A,_B,B,A, | 
G,2G,A,A,G, | 
F,2F,G,G,F, | 
E,2E,F,F,E, | 
D,6 | 
C4B,2[K:clef=treble] | 
_A6 | 
z6 | 
F6 | 
B,2_E2D2 | 
^C6 | 
^D6 | 
E6 | 
B,2E2^D2[K:clef=treble] | 
E6 | 
=F6 | 
^F6 | 
=B,2^F2^E2 | 
^F6 | 
G6 | 
^G6 | 
A6 | 
^c2=B2A2 | 
G2D2E2 ||  
 [K:D] F6 | 
^G6 | 
B2A2^G2 | 
B4A2 | 
E6 | 
F6 | 
A2G2F2 | 
A4G2[K:clef=bass] | 
B,6 | 
C4B,2 | 
A,2B,2C2 | 
D2E2F2[K:clef=treble] | 
E2c2d2 | 
c2B2E2 | 
A2E2A2- | 
A2G2F2 | 
G6 | 
^A6 | 
c2B2^A2 | 
c4B2 | 
F6 | 
^G6 | 
B2A2^G2 | 
B4A2 | 
A6 | 
_B6 | 
=B6 | 
=c6 | 
^c4d2- | 
d2D2G2 | 
E6 | 
D2z2C2 ||  
C4F2 | 
F4^G2 | 
F2^E2c2 | 
c6- | 
c4=E2 | 
E2^G2F2 | 
E2^D2B2 | 
B6- | 
B4=D2- | 
D2F2E2 | 
D2C2G2 | 
G6- | 
G2G2G2 | 
G4F2 | 
^D6 | 
E4^E2 | 
F6 | 
^G6 | 
B2A2^G2 | 
B4A2 | 
E6 | 
F6 | 
A2G2F2 | 
A4G2 | 
G6 | 
_A6 | 
=A6 | 
_B6 | 
=B2c3d | 
D4G2 |[1 
E6- | 
E2D2C2 :|][2 
E6 | 
F6 | 
G6 | 
^G6 | 
A2z2z2 | 
!trill!F6{/E2F2} | 
G6 | 
^G6 | 
A6 | 
_B6 | 
A6 | 
_B6- | 
B z AG_BA | 
G z =FEGF | 
E z DCED[K:clef=bass] | 
C z _B,A,=CB, ||  
 [K:F] A,2A,B,B,A, | 
A,D^CDE2 | 
F2A,B,B,A, | 
A,F,E,D,E,2 | 
A,,2z2[K:clef=treble]E2 | 
F2D4 | 
A2E4 | 
F2D4 | 
A6 | 
E4^c2 | 
^c6 | 
z6[K:clef=bass] | 
A, z B,A,CB, | 
G, z A,G,B,A, | 
F, z G,F,A,G, | 
E, z F,E,G,F, | 
D,2z2z2 | 
z2z2[A,2E,2A,,2] | 
[A,2D,2]z2z2 | 
z2z2E,2 | 
C2A,B,B,A, | 
G,2G,A,A,G, | 
F,2F,G,G,F, | 
E,2E,F,F,E, | 
D,6 | 
C4B,2[K:clef=treble] | 
_A6 | 
z6 | 
F6 | 
B,2_E2D2 | 
^C6 | 
D6[K:clef=bass] | 
=C6 | 
^F,2B,2A,2 | 
G,6 | 
^C,2F,2E,2 | 
_E,6 | 
D,6 | 
B,,6 | 
G,,6 | 
D,,2D,,_E,, E,,D,, | 
D,,2G,,4 | 
D,,2D,,_E,,E,,D,, | 
D,,2G,,4 | 
D,,2D,,_E,,E,,D,, | 
z2D,,_E,,E,,D,, | 
[A,2D,2A,,2D,,2]z2z2 |]
